24x24/apps/com.github.cassidyjames.principles.svg

<svg xmlns="http://www.w3.org/2000/svg" width="24" height="24" version="1.1">
 <ellipse style="fill:#17191e" cx="13" cy="12" rx="5.5" ry="7"/>
 <path style="opacity:0.2" d="m 13.5,2.5 a 8.5,10 0 0 0 -8.5,10 8.5,10 0 0 0 8.5,10 8.5,10 0 0 0 8.5,-10 8.5,10 0 0 0 -8.5,-10 z m 0,4 c 2.151173,0 4.5,2.314649 4.5,6 0,3.685351 -2.348827,6 -4.5,6 -2.151173,0 -4.4999999,-2.314649 -4.4999999,-6 0,-3.685351 2.3488269,-6 4.4999999,-6 z"/>
 <path style="fill:#4f4f4f" d="M 13.5,2 A 8.5,10 0 0 0 5,12 8.5,10 0 0 0 13.5,22 8.5,10 0 0 0 22,12 8.5,10 0 0 0 13.5,2 Z m 0,4 c 2.151173,0 4.5,2.314649 4.5,6 0,3.685351 -2.348827,6 -4.5,6 -2.151173,0 -4.4999999,-2.314649 -4.4999999,-6 0,-3.685351 2.3488269,-6 4.4999999,-6 z"/>
 <path style="opacity:0.1;fill:#f4f4f7" d="M 13.5,2 A 8.5,10 0 0 0 5,12 8.5,10 0 0 0 5.00879,12.209961 8.5,10 0 0 1 13.500001,2.5 8.5,10 0 0 1 21.991212,12.290039 8.5,10 0 0 0 22.000012,12 a 8.5,10 0 0 0 -8.5,-10 z M 9.0097656,12.25 c -0.00249,0.08385 -0.00977,0.164672 -0.00977,0.25 0,3.685351 2.3488274,6 4.5000004,6 2.151173,0 4.499999,-2.314649 4.499999,-6 0,-0.08533 -0.0073,-0.166152 -0.0098,-0.25 C 17.885279,15.787525 15.601326,18 13.49996,18 11.398594,18 9.1146405,15.787525 9.0097251,12.25 Z"/>
 <path style="opacity:0.2" d="M 6.9414062,2.4724682 A 2.0002,2.0002 0 0 0 5.5800781,3.062312 l -3.9707031,4 A 2.0002,2.0002 0 1 0 4.4472656,9.8806714 L 5,9.3240308 V 20.470515 a 2.0002,2.0002 0 1 0 4,0 V 4.4705151 A 2.0002,2.0002 0 0 0 6.9414062,2.4724682 Z"/>
 <path style="fill:none;stroke:#f4f4f7;stroke-width:4;stroke-linecap:round;stroke-linejoin:round" d="M 3.0283145,7.9715 7,3.9715 v 16"/>
 <path style="opacity:0.2;fill:#f4f4f7" d="M 6.9414062 1.9726562 A 2.0002 2.0002 0 0 0 5.5800781 2.5625 L 1.609375 6.5625 A 2.0002 2.0002 0 0 0 1.0175781 8.2480469 A 2.0002 2.0002 0 0 1 1.609375 7.0625 L 5.5800781 3.0625 A 2.0002 2.0002 0 0 1 6.9414062 2.4726562 A 2.0002 2.0002 0 0 1 9 4.4707031 L 9 3.9707031 A 2.0002 2.0002 0 0 0 6.9414062 1.9726562 z"/>
</svg>

<svg xmlns="http://www.w3.org/2000/svg" width="24" height="24"><ellipse style="fill:#17191e" cx="13" cy="12" rx="5.5" ry="7"/><path style="opacity:.2" d="M13.5 2.5a8.5 10 0 0 0-8.5 10 8.5 10 0 0 0 8.5 10 8.5 10 0 0 0 8.5-10 8.5 10 0 0 0-8.5-10zm0 4c2.151 0 4.5 2.315 4.5 6s-2.349 6-4.5 6-4.5-2.315-4.5-6 2.349-6 4.5-6z"/><path style="fill:#4f4f4f" d="M13.5 2A8.5 10 0 0 0 5 12a8.5 10 0 0 0 8.5 10A8.5 10 0 0 0 22 12a8.5 10 0 0 0-8.5-10zm0 4c2.151 0 4.5 2.315 4.5 6s-2.349 6-4.5 6S9 15.685 9 12s2.349-6 4.5-6z"/><path style="opacity:.1;fill:#f4f4f7" d="M13.5 2A8.5 10 0 0 0 5 12a8.5 10 0 0 0 .009.21A8.5 10 0 0 1 13.5 2.5a8.5 10 0 0 1 8.491 9.79A8.5 10 0 0 0 22 12a8.5 10 0 0 0-8.5-10zM9.01 12.25c-.003.084-.01.165-.01.25 0 3.685 2.349 6 4.5 6s4.5-2.315 4.5-6c0-.085-.007-.166-.01-.25-.105 3.538-2.389 5.75-4.49 5.75-2.101 0-4.385-2.212-4.49-5.75z"/><path style="opacity:.2" d="M6.941 2.472a2 2 0 0 0-1.36.59l-3.972 4a2 2 0 1 0 2.838 2.819L5 9.324v11.147a2 2 0 1 0 4 0v-16a2 2 0 0 0-2.059-1.999z"/><path style="fill:none;stroke:#f4f4f7;stroke-width:4;stroke-linecap:round;stroke-linejoin:round" d="m3.028 7.971 3.972-4v16"/><path style="opacity:.2;fill:#f4f4f7" d="M6.941 1.973a2 2 0 0 0-1.36.59l-3.972 4a2 2 0 0 0-.591 1.685 2 2 0 0 1 .591-1.185l3.971-4a2 2 0 0 1 1.361-.59A2 2 0 0 1 9 4.47v-.5a2 2 0 0 0-2.059-1.998z"/></svg>
